imgs/design-icon.svg

<svg width="100" height="101" viewBox="0 0 100 101" fill="none" xmlns="http://www.w3.org/2000/svg">
<path d="M0.00586396 1.91683C0.593641 1.29149 0.9217 0.853752 1.85316 0.742363C4.29214 0.45119 11.0955 0.466827 13.5521 0.746276C14.589 0.863527 15.5985 1.66083 15.5985 2.79426V6.5971H42.1032V2.40342C42.1032 1.89533 43.1557 0.765815 43.7708 0.756044C47.5943 1.00227 51.8923 0.390604 55.6572 0.736495C56.4695 0.810754 57.6939 1.55726 57.6939 2.40342V6.5971H84.1985V2.79426C84.1985 2.7415 84.4875 1.89533 84.5481 1.77808C85.0167 0.863521 85.7021 0.808802 86.6258 0.738451C90.3165 0.449232 94.388 0.959271 98.1197 0.759944C99.2698 1.00617 99.6916 1.66865 99.799 2.78449C100.053 5.42264 100.084 11.7014 99.7893 14.3005C99.6369 15.645 98.8617 16.2019 97.5495 16.3485C95.0968 16.624 89.1116 16.6006 86.6375 16.3446C85.5381 16.2312 84.1985 15.6 84.1985 14.2986V10.4957H68.4125L73.4623 13.341C85.5323 20.9369 93.3999 34.3817 93.9408 48.7255C96.1083 48.9951 99.5022 47.678 99.799 50.7617C100.063 53.5093 100.053 59.3367 99.7971 62.0921C99.6623 63.5421 99.0179 64.1694 97.5495 64.3277C95.0265 64.5993 89.1761 64.5817 86.6375 64.3238C84.8703 64.1459 84.3391 63.4248 84.1927 61.6993C83.972 59.108 83.9212 53.5171 84.22 50.9864C84.3157 50.1774 84.8761 48.7215 85.8545 48.7215H90.0451C89.1937 30.618 75.5498 14.5467 57.6919 11.2735V14.492C57.6919 14.7148 57.1608 15.6704 56.9089 15.8541C56.5808 16.0944 55.8408 16.2742 55.4287 16.3231C52.8589 16.626 47.567 16.5478 44.9171 16.3524C44.3 16.3075 43.3861 16.2215 42.8823 15.8541C42.6304 15.6704 42.0993 14.7148 42.0993 14.492V11.2735C24.2434 14.5467 10.5976 30.618 9.74616 48.7215H13.9368C14.9932 48.7215 15.5068 50.3122 15.5907 51.1623C15.8465 53.7243 15.8485 59.325 15.5907 61.8849C15.4267 63.5186 14.7882 64.1577 13.1537 64.3238C10.6522 64.5758 4.71589 64.6052 2.24176 64.3277C1.21266 64.2124 0.576062 63.7981 0.00195465 62.9617V49.8941C1.32787 47.975 3.87035 48.9482 5.85043 48.7255C6.40306 34.4052 14.2707 20.9291 26.3289 13.341L31.3787 10.4957H15.5927V14.2986C15.5927 15.7114 14.1223 16.2547 12.9682 16.3524C10.4784 16.5635 4.44641 16.6514 2.06405 16.329C1.12088 16.2 0.529194 15.729 0 14.9806V1.91292L0.00586396 1.91683ZM11.5056 4.64682H3.90549V12.4479H11.5056V4.64682ZM53.7982 4.64682H46.0028V12.1548C46.0028 12.1763 46.2742 12.4479 46.2957 12.4479H53.5072C53.5287 12.4479 53.8001 12.1763 53.8001 12.1548V4.64682H53.7982ZM95.8935 4.64682H88.2934V12.4479H95.8935V4.64682ZM11.5056 52.626H3.90549V60.4271H11.5056V52.626ZM95.8935 52.626H88.2934V60.4271H95.8935V52.626Z" fill="#E9562A"/>
<path d="M35.8661 100.605C35.4794 99.97 34.6769 99.6065 34.6925 98.7565V82.7634C34.6027 82.2983 33.2103 81.3818 32.7534 80.8053C30.6952 78.2121 31.2674 74.2021 34.0481 72.3593C34.3273 72.1737 36.1649 71.3509 36.3543 71.3509H39.1799C38.1469 67.1983 36.3894 63.2958 33.7181 59.9463C32.4917 58.4103 29.7442 56.6262 30.3671 54.6309C30.6581 53.6988 32.4937 50.5408 33.101 49.5676C34.7237 46.9608 37.5865 48.3209 36.946 50.6835C36.6843 51.6488 34.5519 54.5489 34.7237 55.2211C39.012 59.6004 42.0114 65.2774 43.0873 71.3431H56.7136C57.7876 65.2754 60.787 59.6004 65.0772 55.2211L51.8493 30.9794V45.2176C59.4572 47.5802 57.1295 58.7914 49.2092 58.0977C42.1559 57.4801 41.076 47.1425 47.9516 45.2176V30.9794L43.2826 39.0815C41.6286 40.8168 39.176 39.0737 40.1133 36.885C43.0131 32.4197 45.1377 26.774 48.0668 22.4142C49.2229 20.6946 50.9335 20.8353 51.8825 22.6585L69.5451 54.9202C69.8771 56.6203 67.1706 58.5843 66.0829 59.9502C63.4096 63.2997 61.6541 67.2003 60.6211 71.3549H63.4467C63.6361 71.3549 65.4736 72.1776 65.7529 72.3632C68.5277 74.2021 69.0979 78.2219 67.0475 80.8092C66.5906 81.3877 65.1983 82.3022 65.1065 82.7673L65.0909 98.9402C64.9562 99.7844 64.2102 100.234 63.5424 100.609H62.3727C62.0934 100.298 61.203 99.5479 61.203 99.1454V83.0546H38.596V99.1454C38.596 99.7453 37.5494 100.406 37.0377 100.609H35.868L35.8661 100.605ZM49.4631 48.7684C45.9735 49.2726 46.6687 54.8381 50.5371 54.1404C53.6888 53.5718 53.1166 48.2408 49.4631 48.7684ZM36.9831 75.2945C34.7237 75.912 34.9756 78.9058 37.3228 79.156H62.4723C65.0636 78.8433 64.9679 75.5173 62.4723 75.2457L36.9811 75.2945H36.9831Z" fill="#E9562A"/>
<path d="M37.9633 42.13C40.4511 41.6942 41.1522 45.4306 38.846 45.9543C36.0965 46.5797 35.5185 42.558 37.9633 42.13Z" fill="#E9562A"/>
</svg>

<?xml version="1.0" encoding="UTF-8"?>
<svg id="_圖層_1" data-name="圖層_1" xmlns="http://www.w3.org/2000/svg" version="1.1" viewBox="0 0 100 101">
  <!-- Generator: Adobe Illustrator 29.5.1, SVG Export Plug-In . SVG Version: 2.1.0 Build 141)  -->
  <defs>
    <style>
      .st0 {
        fill: #299ea7;
      }
    </style>
  </defs>
  <path class="st0" d="M0,1.92C.59,1.29.92.85,1.85.74c2.44-.29,9.24-.28,11.7,0,1.04.12,2.05.91,2.05,2.05v3.8h26.5V2.4c0-.51,1.05-1.64,1.67-1.65,3.82.25,8.12-.37,11.89-.02.81.07,2.04.82,2.04,1.67v4.19h26.5v-3.8c0-.05.29-.9.35-1.02.47-.91,1.15-.97,2.08-1.04,3.69-.29,7.76.22,11.49.02,1.15.25,1.57.91,1.68,2.02.25,2.64.28,8.92,0,11.52-.15,1.34-.93,1.9-2.24,2.05-2.45.28-8.44.25-10.91,0-1.1-.11-2.44-.74-2.44-2.05v-3.8h-15.79l5.05,2.85c12.07,7.6,19.94,21.04,20.48,35.38,2.17.27,5.56-1.05,5.86,2.04.26,2.75.25,8.58,0,11.33-.13,1.45-.78,2.08-2.25,2.24-2.52.27-8.37.25-10.91,0-1.77-.18-2.3-.9-2.44-2.62-.22-2.59-.27-8.18.03-10.71.1-.81.66-2.26,1.63-2.26h4.19c-.85-18.1-14.5-34.17-32.35-37.45v3.22c0,.22-.53,1.18-.78,1.36-.33.24-1.07.42-1.48.47-2.57.3-7.86.22-10.51.03-.62-.04-1.53-.13-2.03-.5-.25-.18-.78-1.14-.78-1.36v-3.22C24.24,14.55,10.6,30.62,9.75,48.72h4.19c1.06,0,1.57,1.59,1.65,2.44.26,2.56.26,8.16,0,10.72-.16,1.63-.8,2.27-2.44,2.44-2.5.25-8.44.28-10.91,0-1.03-.12-1.67-.53-2.24-1.37v-13.07c1.33-1.92,3.87-.95,5.85-1.17.55-14.32,8.42-27.8,20.48-35.38l5.05-2.85h-15.79v3.8c0,1.41-1.47,1.96-2.62,2.05-2.49.21-8.52.3-10.9-.02-.94-.13-1.53-.6-2.06-1.35V1.91h0ZM11.51,4.65H3.91v7.8h7.6v-7.8ZM53.8,4.65h-7.8v7.51s.27.29.29.29h7.21s.29-.27.29-.29v-7.51h0ZM95.89,4.65h-7.6v7.8h7.6v-7.8ZM11.51,52.63H3.91v7.8h7.6v-7.8ZM95.89,52.63h-7.6v7.8h7.6v-7.8Z"/>
  <path class="st0" d="M35.87,100.61c-.39-.64-1.19-1-1.17-1.85v-15.99c-.09-.47-1.48-1.38-1.94-1.96-2.06-2.59-1.49-6.6,1.29-8.45.28-.19,2.12-1.01,2.31-1.01h2.83c-1.03-4.15-2.79-8.06-5.46-11.4-1.23-1.54-3.97-3.32-3.35-5.32.29-.93,2.13-4.09,2.73-5.06,1.62-2.61,4.49-1.25,3.84,1.12-.26.97-2.39,3.87-2.22,4.54,4.29,4.38,7.29,10.06,8.36,16.12h13.63c1.07-6.07,4.07-11.74,8.36-16.12l-13.23-24.24v14.24c7.61,2.36,5.28,13.57-2.64,12.88-7.05-.62-8.13-10.96-1.26-12.88v-14.24l-4.67,8.1c-1.65,1.74-4.11,0-3.17-2.2,2.9-4.47,5.02-10.11,7.95-14.47,1.16-1.72,2.87-1.58,3.82.24l17.66,32.26c.33,1.7-2.37,3.66-3.46,5.03-2.67,3.35-4.43,7.25-5.46,11.4h2.83c.19,0,2.03.82,2.31,1.01,2.77,1.84,3.35,5.86,1.29,8.45-.46.58-1.85,1.49-1.94,1.96l-.02,16.17c-.13.84-.88,1.29-1.55,1.67h-1.17c-.28-.31-1.17-1.06-1.17-1.46v-16.09h-22.61v16.09c0,.6-1.05,1.26-1.56,1.46h-1.17ZM49.46,48.77c-3.49.5-2.79,6.07,1.07,5.37,3.15-.57,2.58-5.9-1.07-5.37ZM36.98,75.29c-2.26.62-2.01,3.61.34,3.86h25.15c2.59-.31,2.5-3.64,0-3.91l-25.49.05h0Z"/>
  <path class="st0" d="M37.96,42.13c2.49-.44,3.19,3.3.88,3.82-2.75.63-3.33-3.4-.88-3.82Z"/>
</svg>
